!!!OTL: !!!OTL: 42d. Schoen Ulrich und Rautendelein.
!!!ODT: 1812
!!!ARE: Europa, Mitteleuropa, Deutschland
!!!SCT: E0042D
!!!YEM: Copyright 1995, estate of Helmut Schaffrath.
**kern
*ICvox
*M4/4
*met(c)
*k[f#]
*G:
!LO:TX:a:t=1812.
{8gL
8bJ
=1
4dd
4b
4dd
4g
=2
4ee
4ee
4dd}
{8bL
8ccJ
=3
4dd
4dd
4cc
4a
=4
8gL
8f#
8g
8aJ
4g}
{4d
=5
2b
2dd
=6
4cc
4a
8bL
8aJ
8gL
8f#J
=7
4g
!LO:N:vis=4
2r}
==
!!!AGN: erzaehlendes Volks - Lied, Ritter -, Raeuber - Sage, Ballade ?
!!!ONB: ESAC (Essen Associative Code) Database: ERK1
!!!AMT: simple quadruple
!!!AIN: vox
!!!EED: Helmut Schaffrath
!!!EEV: 1.0
!!!GTL: Ritter- und Raeubersagen
!!!URL-scan: https://rosdok.uni-rostock.de/mcrviewer/recordIdentifier/rosdok_ppn745146120/iview2/phys_0201.iview2?x=-250.1417780126858&y=1798.785559245618&scale=0.5392104374602399&rotation=0&layout=singlePageLayout&logicalDiv=log_0009
!!!ENC: Anna Maria Matuszewska
!!!EEV: 2024/11/25
*-
